cs_client/src/assets/icons/cherrytree/star.svg

<?xml version="1.0" encoding="UTF-8" standalone="no"?>
<!-- Created with Inkscape (http://www.inkscape.org/) -->
<svg
   xmlns:dc="http://purl.org/dc/elements/1.1/"
   xmlns:cc="http://creativecommons.org/ns#"
   xmlns:rdf="http://www.w3.org/1999/02/22-rdf-syntax-ns#"
   xmlns:svg="http://www.w3.org/2000/svg"
   xmlns="http://www.w3.org/2000/svg"
   xmlns:xlink="http://www.w3.org/1999/xlink"
   xmlns:sodipodi="http://sodipodi.sourceforge.net/DTD/sodipodi-0.dtd"
   xmlns:inkscape="http://www.inkscape.org/namespaces/inkscape"
   width="48px"
   height="48px"
   id="svg7189"
   sodipodi:version="0.32"
   inkscape:version="0.46"
   sodipodi:docname="emblem-special.svg"
   inkscape:output_extension="org.inkscape.output.svg.inkscape">
  <defs
     id="defs7191">
    <linearGradient
       inkscape:collect="always"
       id="linearGradient7950">
      <stop
         style="stop-color:#ffffff;stop-opacity:1;"
         offset="0"
         id="stop7952" />
      <stop
         style="stop-color:#ffffff;stop-opacity:0;"
         offset="1"
         id="stop7954" />
    </linearGradient>
    <linearGradient
       inkscape:collect="always"
       xlink:href="#linearGradient7950"
       id="linearGradient7956"
       x1="11"
       y1="-7.0623527"
       x2="11"
       y2="20.587196"
       gradientUnits="userSpaceOnUse" />
    <linearGradient
       inkscape:collect="always"
       id="linearGradient7948">
      <stop
         style="stop-color:#c4a000;stop-opacity:1;"
         offset="0"
         id="stop7950" />
      <stop
         style="stop-color:#ce5c00;stop-opacity:1"
         offset="1"
         id="stop7953" />
    </linearGradient>
    <linearGradient
       inkscape:collect="always"
       xlink:href="#linearGradient7948"
       id="linearGradient7955"
       x1="11.000734"
       y1="-7.5773058"
       x2="11.000734"
       y2="21.047073"
       gradientUnits="userSpaceOnUse" />
    <linearGradient
       id="linearGradient2760">
      <stop
         style="stop-color:#fff6aa;stop-opacity:1"
         offset="0"
         id="stop2762" />
      <stop
         id="stop1884"
         offset="0.56428707"
         style="stop-color:#fce94f;stop-opacity:1" />
      <stop
         style="stop-color:#fcaf3e;stop-opacity:1"
         offset="1"
         id="stop2764" />
    </linearGradient>
    <radialGradient
       inkscape:collect="always"
       xlink:href="#linearGradient2760"
       id="radialGradient2766"
       cx="6.484127"
       cy="-3.1232908"
       fx="6.484127"
       fy="-3.1232908"
       r="15.17675"
       gradientTransform="matrix(-0.9906918,0.9838734,-0.9873672,-0.9911854,14.34067,-13.780844)"
       gradientUnits="userSpaceOnUse" />
    <linearGradient
       inkscape:collect="always"
       id="linearGradient3383">
      <stop
         style="stop-color:#000000;stop-opacity:1;"
         offset="0"
         id="stop3385" />
      <stop
         style="stop-color:#000000;stop-opacity:0;"
         offset="1"
         id="stop3387" />
    </linearGradient>
    <radialGradient
       inkscape:collect="always"
       xlink:href="#linearGradient3383"
       id="radialGradient8567"
       gradientUnits="userSpaceOnUse"
       gradientTransform="matrix(1,0,0,0.4889336,0,8.0475196)"
       cx="11.026446"
       cy="15.746525"
       fx="11.026446"
       fy="15.746525"
       r="10.982252" />
  </defs>
  <sodipodi:namedview
     id="base"
     pagecolor="#ffffff"
     bordercolor="#666666"
     borderopacity="1.0"
     inkscape:pageopacity="0.0"
     inkscape:pageshadow="2"
     inkscape:zoom="7"
     inkscape:cx="2.3571429"
     inkscape:cy="24"
     inkscape:current-layer="layer1"
     showgrid="true"
     inkscape:grid-bbox="true"
     inkscape:document-units="px"
     inkscape:window-width="1680"
     inkscape:window-height="1000"
     inkscape:window-x="0"
     inkscape:window-y="25" />
  <metadata
     id="metadata7194">
    <rdf:RDF>
      <cc:Work
         rdf:about="">
        <dc:format>image/svg+xml</dc:format>
        <dc:type
           rdf:resource="http://purl.org/dc/dcmitype/StillImage" />
      </cc:Work>
    </rdf:RDF>
  </metadata>
  <g
     id="layer1"
     inkscape:label="Layer 1"
     inkscape:groupmode="layer">
    <path
       sodipodi:type="arc"
       style="opacity:0.2;fill:url(#radialGradient8567);fill-opacity:1;stroke:none;stroke-width:1;stroke-linecap:round;stroke-linejoin:miter;stroke-miterlimit:4;stroke-dasharray:none;stroke-dashoffset:0;stroke-opacity:1"
       id="path3428"
       sodipodi:cx="11.026446"
       sodipodi:cy="15.746525"
       sodipodi:rx="10.982252"
       sodipodi:ry="5.3695922"
       d="M 22.008698,15.746525 A 10.982252,5.3695922 0 1 1 0.044194221,15.746525 A 10.982252,5.3695922 0 1 1 22.008698,15.746525 z"
       transform="matrix(1.9121761,0,0,1.8623388,2.9154929,8.674636)" />
    <path
       sodipodi:type="star"
       style="opacity:1;fill:url(#radialGradient2766);fill-opacity:1;stroke:url(#linearGradient7955);stroke-width:0.65102839;stroke-linecap:butt;stroke-linejoin:miter;stroke-miterlimit:4;stroke-dasharray:none;stroke-dashoffset:0;stroke-opacity:1"
       id="path1869"
       sodipodi:sides="5"
       sodipodi:cx="11"
       sodipodi:cy="8.125"
       sodipodi:r1="15.377032"
       sodipodi:r2="8.9254045"
       sodipodi:arg1="-1.5707963"
       sodipodi:arg2="-0.94718689"
       inkscape:flatsided="false"
       inkscape:rounded="0.18352206"
       inkscape:randomized="0"
       d="M 11,-7.2520323 C 12.772557,-7.2603808 14.778116,-0.16232338 16.21216,0.87957124 C 17.657835,1.9299171 25.06423,1.6763614 25.624427,3.3732361 C 26.180117,5.0564575 20.049215,9.1572782 19.501458,10.843098 C 18.949258,12.542592 21.479106,19.508138 20.038392,20.565281 C 18.609271,21.613917 12.814606,17.050306 11.04203,17.050306 C 9.2550764,17.050305 3.4122139,21.608805 1.9616069,20.56528 C 0.52267162,19.530152 3.0722734,12.608865 2.5245181,10.923044 C 1.9723197,9.2235499 -4.1686154,5.0753115 -3.6244266,3.3732353 C -3.0846165,1.6848543 4.2857892,1.9708743 5.7198337,0.92898096 C 7.1655103,-0.12136361 9.2130662,-7.2436161 11,-7.2520323 z"
       transform="matrix(1.5348722,0,0,1.5372119,7.1163768,12.647913)" />
    <path
       sodipodi:type="inkscape:offset"
       inkscape:radius="-1.0723317"
       inkscape:original="M 11 -7.25 C 9.2185557 -7.25 7.222469 -0.10960666 5.78125 0.9375 C 4.3400313 1.9846066 -3.0745035 1.6807459 -3.625 3.375 C -4.1754966 5.0692543 1.9807534 9.1807461 2.53125 10.875 C 3.0817465 12.569254 0.52753133 19.515393 1.96875 20.5625 C 3.4099688 21.609607 9.2185557 17.03125 11 17.03125 C 12.781444 17.03125 18.590031 21.609606 20.03125 20.5625 C 21.472469 19.515393 18.918253 12.569255 19.46875 10.875 C 20.019247 9.1807459 26.175496 5.0692541 25.625 3.375 C 25.074503 1.6807458 17.659969 1.9846068 16.21875 0.9375 C 14.777531 -0.1096067 12.781445 -7.25 11 -7.25 z "
       style="opacity:1;fill:none;fill-opacity:1;stroke:url(#linearGradient7956);stroke-width:0.62848389;stroke-linecap:butt;stroke-linejoin:round;stroke-miterlimit:4;stroke-dasharray:none;stroke-dashoffset:0;stroke-opacity:1"
       id="path2758"
       d="M 11,-6.09375 C 10.884957,-5.988318 10.718187,-5.8098367 10.53125,-5.53125 C 10.134891,-4.9405696 9.6629041,-4.0373537 9.21875,-3.09375 C 8.7745959,-2.1501463 8.3448542,-1.1389059 7.90625,-0.28125 C 7.4676458,0.57640587 7.1401874,1.2792634 6.40625,1.8125 C 5.6722678,2.3457692 4.8892811,2.4412409 3.9375,2.59375 C 2.9857189,2.7462591 1.9105283,2.837398 0.875,2.96875 C -0.1605283,3.100102 -1.1587412,3.2739182 -1.84375,3.46875 C -2.1733403,3.5624928 -2.397236,3.6725925 -2.53125,3.75 C -2.4640794,3.8932548 -2.3252465,4.1188778 -2.125,4.375 C -1.6871619,4.9350099 -0.97667447,5.6289777 -0.21875,6.34375 C 0.53917447,7.0585223 1.3529479,7.7860176 2.03125,8.46875 C 2.7095521,9.1514824 3.2827502,9.6702687 3.5625,10.53125 C 3.8419788,11.391397 3.6777444,12.173938 3.53125,13.125 C 3.3847556,14.076062 3.1606027,15.132349 2.96875,16.15625 C 2.7768973,17.180151 2.6180293,18.164383 2.59375,18.875 C 2.5820928,19.216186 2.6237262,19.473342 2.65625,19.625 C 2.8131119,19.605535 3.0694939,19.548645 3.375,19.4375 C 4.0424589,19.194675 4.9302768,18.749191 5.84375,18.25 C 6.7572232,17.750809 7.7039582,17.21479 8.5625,16.78125 C 9.4210418,16.34771 10.095319,15.96875 11,15.96875 C 11.904681,15.96875 12.578958,16.347711 13.4375,16.78125 C 14.296042,17.214789 15.242777,17.750809 16.15625,18.25 C 17.069723,18.749191 17.957541,19.194675 18.625,19.4375 C 18.930506,19.548645 19.186888,19.605535 19.34375,19.625 C 19.376274,19.473342 19.417907,19.216186 19.40625,18.875 C 19.381971,18.164383 19.223103,17.180151 19.03125,16.15625 C 18.839397,15.132349 18.615244,14.076062 18.46875,13.125 C 18.322256,12.173938 18.158021,11.391397 18.4375,10.53125 C 18.71725,9.670269 19.290448,9.1514824 19.96875,8.46875 C 20.647052,7.7860176 21.460826,7.0585223 22.21875,6.34375 C 22.976674,5.6289777 23.687162,4.9350099 24.125,4.375 C 24.325247,4.1188778 24.464079,3.8932549 24.53125,3.75 C 24.397236,3.6725925 24.17334,3.5624928 23.84375,3.46875 C 23.158741,3.2739182 22.160528,3.100102 21.125,2.96875 C 20.089472,2.837398 19.014281,2.7462591 18.0625,2.59375 C 17.110719,2.4412409 16.327732,2.3457692 15.59375,1.8125 C 14.859813,1.2792634 14.532354,0.57640587 14.09375,-0.28125 C 13.655146,-1.1389059 13.225404,-2.1501463 12.78125,-3.09375 C 12.337096,-4.0373537 11.865109,-4.9405696 11.46875,-5.53125 C 11.281813,-5.8098367 11.115043,-5.988318 11,-6.09375 z"
       transform="matrix(1.5889053,0,0,1.5941579,6.5220128,12.214526)" />
  </g>
</svg>

<svg xmlns="http://www.w3.org/2000/svg" xmlns:xlink="http://www.w3.org/1999/xlink" width="48" height="48"><defs><linearGradient id="a"><stop offset="0" stop-color="#fff"/><stop offset="1" stop-color="#fff" stop-opacity="0"/></linearGradient><linearGradient xlink:href="#a" id="h" x1="11" y1="-7.062" x2="11" y2="20.587" gradientUnits="userSpaceOnUse"/><linearGradient id="b"><stop offset="0" stop-color="#c4a000"/><stop offset="1" stop-color="#ce5c00"/></linearGradient><linearGradient xlink:href="#b" id="g" x1="11.001" y1="-7.577" x2="11.001" y2="21.047" gradientUnits="userSpaceOnUse"/><linearGradient id="c"><stop offset="0" stop-color="#fff6aa"/><stop offset=".564" stop-color="#fce94f"/><stop offset="1" stop-color="#fcaf3e"/></linearGradient><linearGradient id="d"><stop offset="0"/><stop offset="1" stop-opacity="0"/></linearGradient><radialGradient xlink:href="#c" id="f" cx="6.484" cy="-3.123" fx="6.484" fy="-3.123" r="15.177" gradientTransform="matrix(-.9907 .98387 -.98737 -.99119 14.34 -13.78)" gradientUnits="userSpaceOnUse"/><radialGradient xlink:href="#d" id="e" gradientUnits="userSpaceOnUse" gradientTransform="matrix(1 0 0 .48893 0 8.048)" cx="11.026" cy="15.747" fx="11.026" fy="15.747" r="10.982"/></defs><path d="M22.009 15.747a10.982 5.37 0 11-21.965 0 10.982 5.37 0 1121.965 0z" transform="matrix(1.91218 0 0 1.86234 2.915 8.675)" opacity=".2" fill="url(#e)"/><path d="M11-7.252c1.773-.008 3.778 7.09 5.212 8.132 1.446 1.05 8.852.796 9.412 2.493.556 1.683-5.575 5.784-6.123 7.47-.552 1.7 1.978 8.665.537 9.722-1.429 1.049-7.223-3.515-8.996-3.515-1.787 0-7.63 4.559-9.08 3.515-1.44-1.035 1.11-7.956.563-9.642-.553-1.7-6.694-5.848-6.15-7.55.54-1.688 7.91-1.402 9.345-2.444C7.166-.121 9.213-7.244 11-7.252z" transform="matrix(1.53487 0 0 1.53721 7.116 12.648)" fill="url(#f)" stroke="url(#g)" stroke-width=".651"/><path d="M11-6.094a3.116 3.116 0 00-.469.563c-.396.59-.868 1.494-1.312 2.437-.444.944-.874 1.955-1.313 2.813-.438.857-.766 1.56-1.5 2.094-.734.533-1.517.628-2.468.78-.952.153-2.027.244-3.063.376-1.036.131-2.034.305-2.719.5-.33.093-.553.204-.687.281.067.143.206.369.406.625.438.56 1.148 1.254 1.906 1.969.758.715 1.572 1.442 2.25 2.125.679.682 1.252 1.201 1.531 2.062.28.86.116 1.643-.03 2.594-.147.951-.371 2.007-.563 3.031-.192 1.024-.351 2.008-.375 2.719-.012.341.03.598.062.75a3.5 3.5 0 00.719-.188c.667-.242 1.555-.688 2.469-1.187.913-.5 1.86-1.035 2.718-1.469.859-.433 1.533-.812 2.438-.812.905 0 1.579.379 2.438.812.858.434 1.805.97 2.718 1.469.914.5 1.802.945 2.469 1.188a3.5 3.5 0 00.719.187c.032-.152.074-.409.062-.75-.024-.71-.183-1.695-.375-2.719-.192-1.024-.416-2.08-.562-3.031-.147-.951-.311-1.734-.032-2.594.28-.86.853-1.38 1.532-2.062.678-.683 1.492-1.41 2.25-2.125.758-.715 1.468-1.409 1.906-1.969.2-.256.34-.482.406-.625a3.021 3.021 0 00-.687-.281c-.685-.195-1.683-.369-2.719-.5-1.036-.132-2.11-.223-3.063-.375-.951-.153-1.734-.248-2.468-.781-.734-.534-1.062-1.237-1.5-2.094-.439-.858-.869-1.87-1.313-2.813-.444-.943-.916-1.847-1.312-2.437A3.116 3.116 0 0011-6.094z" transform="matrix(1.5889 0 0 1.59416 6.522 12.215)" fill="none" stroke="url(#h)" stroke-width=".628" stroke-linejoin="round"/></svg>
